dist/images/union-pink.svg

<svg width="40" height="40" viewBox="0 0 40 40" fill="none" xmlns="http://www.w3.org/2000/svg">
<path fill-rule="evenodd" clip-rule="evenodd" d="M22.0334 0H28.0662V6.36057H22.0334V0ZM22.032 8.13103H8.06495V21.6389H0V26.6225H8.06547V21.6391H22.032V8.13103ZM28.0646 16.6556H39.9989V26.6227H28.0662V35.2125H22.0334V21.6389H28.0646V16.6556ZM22.032 35.2129H12.0649V39.9997H22.032V35.2129Z" fill="#A34AA8"/>
</svg>

<svg width="40" height="40" fill="none" xmlns="http://www.w3.org/2000/svg"><path fill-rule="evenodd" clip-rule="evenodd" d="M22.033 0h6.033v6.36h-6.033V0zm-.001 8.131H8.065v13.508H0v4.983h8.065V21.64h13.967V8.131zm6.033 8.525h11.934v9.967H28.066v8.59h-6.033V21.639h6.032v-4.983zm-6.033 18.557h-9.967V40h9.967v-4.787z" fill="#A34AA8"/></svg>
